icons/fill-ele-symbol-star.svg

<svg xmlns="http://www.w3.org/2000/svg" width="32px" height="32px" viewBox="0 0 32 32" version="1.1">
    <title>fill-ele-symbol-star</title>
    <g id="fill-ele-symbol-star" stroke-width="1" fill-rule="evenodd">
        <path d="M15.5346589,24.7446443 L8.97669337,28.1923708 C8.48784878,28.4493716 7.88322163,28.2614251 7.62622082,27.7725805 C7.52388175,27.57792 7.48856707,27.354952 7.52574392,27.1381943 L8.77820388,19.8357924 C8.83384182,19.5113983 8.72629333,19.1803982 8.49060725,18.950661 L3.18510171,13.7790712 C2.78961813,13.39357 2.78152582,12.7604568 3.16702703,12.3649732 C3.32053564,12.2074896 3.52167805,12.1050024 3.73931508,12.0733779 L11.0713434,11.0079718 C11.3970536,10.9606433 11.6786192,10.756074 11.8242812,10.4609305 L15.1032639,3.81698575 C15.3476862,3.32173209 15.9473121,3.11839309 16.4425657,3.36281539 C16.6397783,3.46014562 16.7994058,3.61977315 16.8967361,3.81698575 L20.1757188,10.4609305 C20.3213808,10.756074 20.6029464,10.9606433 20.9286566,11.0079718 L28.2606849,12.0733779 C28.8072298,12.1527955 29.1859112,12.6602383 29.1064936,13.2067832 C29.0748691,13.4244202 28.9723819,13.6255626 28.8148983,13.7790712 L23.5093928,18.950661 C23.2737067,19.1803982 23.1661582,19.5113983 23.2217961,19.8357924 L24.4742561,27.1381943 C24.5676171,27.6825308 24.2020293,28.1994867 23.6576928,28.2928477 C23.4409352,28.3300246 23.2179671,28.2947099 23.0233066,28.1923708 L16.4653411,24.7446443 C16.1740171,24.5914862 15.8259829,24.5914862 15.5346589,24.7446443 Z" id="&#26143;&#24418;" />
    </g>
</svg>

<svg xmlns="http://www.w3.org/2000/svg" viewBox="0 0 32 32"><path fill="currentColor" d="m15.535 24.745-6.558 3.447a1 1 0 0 1-1.451-1.054l1.252-7.302a1 1 0 0 0-.287-.885l-5.306-5.172a1 1 0 0 1 .554-1.706l7.332-1.065a1 1 0 0 0 .753-.547l3.28-6.644a1 1 0 0 1 1.793 0l3.279 6.644a1 1 0 0 0 .753.547l7.332 1.065a1 1 0 0 1 .554 1.706l-5.306 5.172a1 1 0 0 0-.287.885l1.252 7.302a1 1 0 0 1-1.45 1.054l-6.559-3.447a1 1 0 0 0-.93 0"/></svg>
